docs/themes/v2/source/images/new/logofirst.svg

<svg width="166" height="28" viewBox="0 0 166 28" fill="none" xmlns="http://www.w3.org/2000/svg">
<path d="M35.452 22H45.396V19.36H38.356V6.6H35.452V22ZM50.8518 22.308C53.1398 22.308 53.8218 21.076 54.0198 20.526H54.4378V20.548C54.4378 21.428 55.2298 22 56.3078 22H58.1558V19.712H57.2758C56.8798 19.712 56.6598 19.492 56.6598 19.052V14.982C56.6598 12.254 54.8558 10.78 51.9958 10.78C49.1578 10.78 47.7278 12.21 47.1998 13.86L49.7518 14.718C49.9498 13.728 50.5658 13.024 51.9518 13.024C53.3598 13.024 53.9758 13.772 53.9758 14.784V15.4H50.9838C48.5198 15.4 46.7598 16.566 46.7598 18.81C46.7598 21.054 48.5198 22.308 50.8518 22.308ZM51.3358 20.064C50.1478 20.064 49.5318 19.514 49.5318 18.722C49.5318 17.93 50.1478 17.468 51.1818 17.468H53.9758V17.688C53.9758 19.14 52.8758 20.064 51.3358 20.064ZM66.7386 22.308C69.3566 22.308 71.6666 20.284 71.6666 16.72V16.368C71.6666 12.804 69.3786 10.78 66.7386 10.78C64.7586 10.78 63.8126 11.572 63.3506 12.342H62.9546V6.6H60.1826V22H62.9106V20.68H63.3066C63.8126 21.516 64.7586 22.308 66.7386 22.308ZM65.9026 19.888C64.2086 19.888 62.9106 18.766 62.9106 16.654V16.434C62.9106 14.322 64.1866 13.2 65.9026 13.2C67.6186 13.2 68.8946 14.322 68.8946 16.434V16.654C68.8946 18.766 67.5966 19.888 65.9026 19.888ZM79.1839 22.308C82.1759 22.308 83.4739 20.614 84.0899 19.448L81.8239 18.26C81.4499 19.096 80.8119 19.888 79.2719 19.888C77.7319 19.888 76.5659 18.854 76.4999 17.358H84.4419V16.412C84.4419 13.068 82.3519 10.78 79.1399 10.78C75.8839 10.78 73.6839 12.98 73.6839 16.412V16.676C73.6839 20.108 75.9059 22.308 79.1839 22.308ZM76.5219 15.29C76.7199 14.036 77.6219 13.2 79.1179 13.2C80.5479 13.2 81.4939 14.036 81.6259 15.29H76.5219ZM86.9091 22H89.6811V6.6H86.9091V22ZM102.05 22.308C105.614 22.308 107.88 20.372 107.88 17.556C107.88 14.74 105.702 13.596 102.424 12.892L101.918 12.782C100.07 12.386 99.212 11.836 99.212 10.692C99.212 9.548 100.026 8.844 101.786 8.844C103.546 8.844 104.624 9.548 104.624 11.308V11.968H107.484V11.308C107.484 7.964 105.086 6.292 101.786 6.292C98.486 6.292 96.352 7.964 96.352 10.78C96.352 13.596 98.222 14.674 101.412 15.378L101.918 15.488C103.898 15.928 105.02 16.368 105.02 17.644C105.02 18.876 104.03 19.756 102.05 19.756C100.07 19.756 98.86 18.832 98.86 16.984V16.368H96V16.984C96 20.328 98.486 22.308 102.05 22.308ZM114.314 22H117.394V19.712H115.282C114.886 19.712 114.666 19.492 114.666 19.052V13.376H117.658V11.088H114.666V7.7H111.894V11.088H109.166V13.376H111.894V19.536C111.894 21.032 112.862 22 114.314 22ZM124.325 22.176C126.283 22.176 127.163 21.318 127.515 20.57H127.911V22H130.639V11.088H127.867V16.632C127.867 18.656 126.877 19.844 125.183 19.844C123.687 19.844 122.851 19.03 122.851 17.38V11.088H120.079V17.6C120.079 20.306 121.773 22.176 124.325 22.176ZM138.124 22.308C140.104 22.308 141.05 21.516 141.556 20.68H141.952V22H144.68V6.6H141.908V12.342H141.512C141.05 11.572 140.104 10.78 138.124 10.78C135.484 10.78 133.196 12.804 133.196 16.368V16.72C133.196 20.284 135.506 22.308 138.124 22.308ZM138.96 19.888C137.266 19.888 135.968 18.766 135.968 16.654V16.434C135.968 14.322 137.244 13.2 138.96 13.2C140.676 13.2 141.952 14.322 141.952 16.434V16.654C141.952 18.766 140.654 19.888 138.96 19.888ZM149.139 9.812C150.151 9.812 150.921 9.108 150.921 8.052C150.921 6.996 150.151 6.292 149.139 6.292C148.127 6.292 147.357 6.996 147.357 8.052C147.357 9.108 148.127 9.812 149.139 9.812ZM147.753 22H150.525V11.088H147.753V22ZM158.789 22.308C162.045 22.308 164.509 20.24 164.509 16.72V16.368C164.509 12.848 162.045 10.78 158.789 10.78C155.533 10.78 153.069 12.848 153.069 16.368V16.72C153.069 20.24 155.533 22.308 158.789 22.308ZM158.789 19.844C157.095 19.844 155.841 18.7 155.841 16.654V16.434C155.841 14.388 157.073 13.244 158.789 13.244C160.505 13.244 161.737 14.388 161.737 16.434V16.654C161.737 18.7 160.483 19.844 158.789 19.844Z" fill="black"/>
<path fill-rule="evenodd" clip-rule="evenodd" d="M3 6H19V22H3V6Z" fill="#E68F52" fill-opacity="0.3"/>
<path fill-rule="evenodd" clip-rule="evenodd" d="M6 5V3H0V9H2V19H0V25H6V23H16V25H22V19H20V9H22V3H16V5H6ZM4 9H6V7H16V9H18V19H16V21H6V19H4V9Z" fill="#E68F52"/>
</svg>

<svg fill="none" height="28" viewBox="0 0 166 28" width="166" xmlns="http://www.w3.org/2000/svg"><path d="m35.452 22h9.944v-2.64h-7.04v-12.76h-2.904zm15.3998.308c2.288 0 2.97-1.232 3.168-1.782h.418v.022c0 .88.792 1.452 1.87 1.452h1.848v-2.288h-.88c-.396 0-.616-.22-.616-.66v-4.07c0-2.728-1.804-4.202-4.664-4.202-2.838 0-4.268 1.43-4.796 3.08l2.552.858c.198-.99.814-1.694 2.2-1.694 1.408 0 2.024.748 2.024 1.76v.616h-2.992c-2.464 0-4.224 1.166-4.224 3.41s1.76 3.498 4.092 3.498zm.484-2.244c-1.188 0-1.804-.55-1.804-1.342s.616-1.254 1.65-1.254h2.794v.22c0 1.452-1.1 2.376-2.64 2.376zm15.4028 2.244c2.618 0 4.928-2.024 4.928-5.588v-.352c0-3.564-2.288-5.588-4.928-5.588-1.98 0-2.926.792-3.388 1.562h-.396v-5.742h-2.772v15.4h2.728v-1.32h.396c.506.836 1.452 1.628 3.432 1.628zm-.836-2.42c-1.694 0-2.992-1.122-2.992-3.234v-.22c0-2.112 1.276-3.234 2.992-3.234s2.992 1.122 2.992 3.234v.22c0 2.112-1.298 3.234-2.992 3.234zm13.2813 2.42c2.992 0 4.29-1.694 4.906-2.86l-2.266-1.188c-.374.836-1.012 1.628-2.552 1.628s-2.706-1.034-2.772-2.53h7.942v-.946c0-3.344-2.09-5.632-5.302-5.632-3.256 0-5.456 2.2-5.456 5.632v.264c0 3.432 2.222 5.632 5.5 5.632zm-2.662-7.018c.198-1.254 1.1-2.09 2.596-2.09 1.43 0 2.376.836 2.508 2.09zm10.3872 6.71h2.772v-15.4h-2.772zm15.1409.308c3.564 0 5.83-1.936 5.83-4.752s-2.178-3.96-5.456-4.664l-.506-.11c-1.848-.396-2.706-.946-2.706-2.09s.814-1.848 2.574-1.848 2.838.704 2.838 2.464v.66h2.86v-.66c0-3.344-2.398-5.016-5.698-5.016s-5.434 1.672-5.434 4.488 1.87 3.894 5.06 4.598l.506.11c1.98.44 3.102.88 3.102 2.156 0 1.232-.99 2.112-2.97 2.112s-3.19-.924-3.19-2.772v-.616h-2.86v.616c0 3.344 2.486 5.324 6.05 5.324zm12.264-.308h3.08v-2.288h-2.112c-.396 0-.616-.22-.616-.66v-5.676h2.992v-2.288h-2.992v-3.388h-2.772v3.388h-2.728v2.288h2.728v6.16c0 1.496.968 2.464 2.42 2.464zm10.011.176c1.958 0 2.838-.858 3.19-1.606h.396v1.43h2.728v-10.912h-2.772v5.544c0 2.024-.99 3.212-2.684 3.212-1.496 0-2.332-.814-2.332-2.464v-6.292h-2.772v6.512c0 2.706 1.694 4.576 4.246 4.576zm13.799.132c1.98 0 2.926-.792 3.432-1.628h.396v1.32h2.728v-15.4h-2.772v5.742h-.396c-.462-.77-1.408-1.562-3.388-1.562-2.64 0-4.928 2.024-4.928 5.588v.352c0 3.564 2.31 5.588 4.928 5.588zm.836-2.42c-1.694 0-2.992-1.122-2.992-3.234v-.22c0-2.112 1.276-3.234 2.992-3.234s2.992 1.122 2.992 3.234v.22c0 2.112-1.298 3.234-2.992 3.234zm10.179-10.076c1.012 0 1.782-.704 1.782-1.76s-.77-1.76-1.782-1.76-1.782.704-1.782 1.76.77 1.76 1.782 1.76zm-1.386 12.188h2.772v-10.912h-2.772zm11.036.308c3.256 0 5.72-2.068 5.72-5.588v-.352c0-3.52-2.464-5.588-5.72-5.588s-5.72 2.068-5.72 5.588v.352c0 3.52 2.464 5.588 5.72 5.588zm0-2.464c-1.694 0-2.948-1.144-2.948-3.19v-.22c0-2.046 1.232-3.19 2.948-3.19s2.948 1.144 2.948 3.19v.22c0 2.046-1.254 3.19-2.948 3.19z" fill="#000"/><g clip-rule="evenodd" fill="#e68f52" fill-rule="evenodd"><path d="m3 6h16v16h-16z" fill-opacity=".3"/><path d="m6 5v-2h-6v6h2v10h-2v6h6v-2h10v2h6v-6h-2v-10h2v-6h-6v2zm-2 4h2v-2h10v2h2v10h-2v2h-10v-2h-2z"/></g></svg>
